X:22
T:The Rocky Road to Dublin                                                                          
M:9/8                                                                                               
K:ADor                                                                                              
L:1/8                                                                                               
efe d2 B A2 A|(EEE) A2 A Bcd|efe d2 B A2 c|B2 A G2 A Bcd :|                                         
e2 a a2 f (ggg)|e2 a a2 A Bcd|e2 a a2 f g2 e|d2 B (GGG) Bcd|                                        
e2 a a2 f g2 d|e2 a (aaa) Bcd|efg fga gfe|(ddd) G2 A Bcd|                                           
ecA ecA A2 a|ecA ecA Bcd| ecA ecA a2 c|(ddd) G2 A Bcd|                                              
ecA ecA A2 a|ecA ecA (BBB)|efg fga gfe|d2 B G2 A Bcd |>|
